X:1
T:A Charge to Keep I Have
T:Text: Charles Wesley (1707-1788) Tune: Lowell Mason (1792-1872)
T:SM BOYLSTON www.hymnary.org/text/a_charge_to_keep_i_have
T:A Charge to Keep I Have
T:This hymn is in the public domain.  You may freely use this score for personal and congregational worship.  If you reproduce the score, please credit Hymnary.org as the source. 
T:This hymn is in the public domain.  You may freely use this score for personal and congregational worship.  If you reproduce the score, please credit Hymnary.org as the source. 
Z:This hymn is in the public domain.  You may freely use this score for personal and congregational worship.  If you reproduce the score, please credit Hymnary.org as the source.
%%score ( 1 2 ) ( 3 4 )
L:1/8
M:3/4
K:C
V:1 treble nm="Piano" snm="Pno."
V:2 treble 
V:3 bass nm="Piano" snm="Pno."
V:4 bass 
V:1
 [EG]2 | [CE][DF] [EG]2 [FA]2 | [EG]4 [Ec]2 | [^Fc][DB] [EA]2 [DA]2 | [DG]4 [EG]2 | %5
w: 3~Arm|me with watch- ful|care as|in thy sight to|live, and|
w: 1~A|charge to keep I|have, a|God to glo- ri-|fy, a|
w: 2~To|serve the pre- sent|age, my|cal- ling to ful-|fill, O|
 [CE][B,F] [CG]2 [EG]2 | [FA][FB] [Ec]2 [DB]2 | [Gc][FA] [DG]2 G2 | [EG]4 |] %9
w: now thy ser- vant,|Lord, pre- pare a|strict ac- count to|give!|
w: ne- ver- dy- ing|soul to save, and|fit it for the|sky.|
w: may it all my|powers en- gage to|do my Mas- ter's|will!|
V:2
 x2 | x6 | x6 | x6 | x6 | x6 | x6 | x4 F2 | x4 |] %9
V:3
 [C,G,]2 | [C,G,][C,G,] G,C [F,C]2 | [C,C]4 [C,C]2 | A,G, [C,G,]2 ^F,C | [G,,B,]4 [C,G,]2 | %5
 [C,G,][D,G,] [E,G,]2 [C,C]2 | [F,C][D,G,] [C,G,]2 G,2 | [E,G,][F,C] [G,B,]2 [G,,D]2 | [C,C]4 |] %9
V:4
 x2 | x2 C,2 x2 | x6 | D,G, x2 D,2 | x6 | x6 | x4 G,2 | x6 | x4 |] %9

